static/site/images/special-projects/children/svg/mfc.svg

<svg width="194" height="264" fill="none" xmlns="http://www.w3.org/2000/svg"><path d="M55.5 167.3V97H.1v70.3c0 24.7 13.2 47.6 34.7 60l62.3 36v-64l-34.6-20c-4.4-2.5-7-7-7-12z" fill="#C79B65"/><path d="M97 235.6l62.4-36c21.4-12.4 34.7-35.3 34.7-60V0h-97v55.4h41.5v84.1c0 4.9-2.6 9.5-6.9 12l-34.6 20v64.1H97z" fill="#E84B37"/><path d="M97 0L.1 97H97V0z" fill="#663A2A"/></svg>

<svg width="194" height="264" viewBox="0 0 194 264" fill="none" xmlns="http://www.w3.org/2000/svg">
    <path d="M55.5 167.3V97H0.0999756V167.3C0.0999756 192 13.3 214.9 34.8 227.3L97.1 263.3V199.3L62.5 179.3C58.1 176.8 55.5 172.3 55.5 167.3Z" fill="#C79B65"/>
    <path d="M97 235.6L159.4 199.6C180.8 187.2 194.1 164.3 194.1 139.6V0H97.1V55.4H138.6V139.5C138.6 144.4 136 149 131.7 151.5L97.1 171.5V235.6H97Z" fill="#E84B37"/>
    <path d="M97 0L0.0999756 97H97V0Z" fill="#663A2A"/>
</svg>
